usr/share/icons/biglinux-icons-material/symbolic/apps/transmission-symbolic.svg

<svg width="16" height="16" version="1.1" xmlns="http://www.w3.org/2000/svg">
 <path d="m8 3-3 3h2v4h-2l3 3 3-3h-2v-4h2z" fill="#363636"/>
 <path d="m3 0c-1.108 0-2 0.892-2 2v12c0 1.108 0.892 2 2 2h10c1.108 0 2-0.892 2-2v-12c0-1.108-0.892-2-2-2h-10zm0 1h10c0.554 0 1 0.446 1 1v12c0 0.554-0.446 1-1 1h-10c-0.554 0-1-0.446-1-1v-12c0-0.554 0.446-1 1-1z" fill="#363636" stroke-linecap="round" stroke-linejoin="round" stroke-width="1.0016"/>
</svg>

<svg xmlns="http://www.w3.org/2000/svg" width="16" height="16"><path fill="#dedede" d="M8 3 5 6h2v4H5l3 3 3-3H9V6h2z"/><path fill="#dedede" d="M3 0C1.892 0 1 .892 1 2v12c0 1.108.892 2 2 2h10c1.108 0 2-.892 2-2V2c0-1.108-.892-2-2-2H3zm0 1h10c.554 0 1 .446 1 1v12c0 .554-.446 1-1 1H3c-.554 0-1-.446-1-1V2c0-.554.446-1 1-1z"/></svg>
